icon-svg/infiniti.svg

<svg xmlns="http://www.w3.org/2000/svg" viewBox="0 0 24 24"><path fill="#44739e" d="m13.715 16.739.003.009h-.003Zl-.265-.789h-.23v1.048h.164v-.789l.273.789h.228V15.95h-.169Zm2.599-.779h.196v1.048h-.196ZM12 6.992c-4.219 0-7.64 1.725-7.64 3.853 0 1.722 2.243 3.181 5.336 3.673l2.3-5.5 2.3 5.5c3.094-.493 5.337-1.951 5.337-3.673.006-2.127-3.415-3.853-7.633-3.853m3.509 5.786L12 8.7l-3.5 4.066c-1.721-.48-2.856-1.321-2.856-2.355 0-1.64 2.822-3.178 6.345-3.178S18.4 8.771 18.4 10.411c0 1.042-1.149 1.889-2.893 2.367Zm6.295 3.181H22v1.048h-.196Zm-2.948-.005v.153h.229v.895h.196v-.895h.228v-.153ZM2 15.959h.196v1.048H2Zm3.099.781.002.008h-.002Zl-.266-.79h-.229v1.048h.163v-.79l.273.79h.228V15.95H5.1Zm5.485-.781h.196v1.048h-.196Zm-2.901 1.04h.195v-.475h.337v-.154h-.337v-.266h.36v-.153h-.555Z"/></svg>

<?xml version="1.0" encoding="UTF-8"?>
<svg width="24px" fill="#44739e" height="24px" viewBox="0 0 24 24" version="1.1" xmlns="http://www.w3.org/2000/svg" xmlns:xlink="http://www.w3.org/1999/xlink">
            <path d="m 13.715,16.739 0.003,0.009 H 13.715 V 16.739 L 13.45,15.95 h -0.23 v 1.048 h 0.164 v -0.79 l 0.273,0.79 h 0.228 V 15.95 h -0.169 z m 2.598999,-0.78 h 0.196 v 1.048 h -0.196 z M 12,6.992 c -4.219,0 -7.64,1.725 -7.64,3.853 0,1.722 2.243,3.181 5.336,3.673 l 2.3,-5.5 2.3,5.5 C 17.39,14.025 19.633,12.567 19.633,10.844 19.639,8.717 16.218,6.992 12,6.992 Z m 3.509,5.786 v 0 L 12,8.7 8.5,12.766 c -1.721,-0.48 -2.856,-1.321 -2.856,-2.355 0,-1.64 2.822,-3.178 6.345,-3.178 3.523,0 6.411,1.538 6.411,3.178 0,1.042 -1.149,1.889 -2.893,2.367 z m 6.295001,3.181 h 0.196 v 1.048 h -0.196 z M 18.856,15.954 v 0.153 h 0.229 v 0.895 h 0.196 v -0.895 h 0.228 V 15.954 Z M 2,15.959 h 0.196 v 1.048 H 2 Z m 3.099,0.781 0.002,0.008 H 5.099 V 16.74 L 4.833,15.95 H 4.604 v 1.048 h 0.163 v -0.79 l 0.273,0.79 H 5.268 V 15.95 H 5.1 Z m 5.485,-0.781 h 0.196 v 1.048 h -0.196 z m -2.901,1.04 H 7.878 V 16.524 H 8.215 V 16.37 H 7.878 v -0.266 h 0.36 V 15.951 H 7.683 Z"/>

</svg>
